public/icons/icons8-blog.svg

<svg xmlns="http://www.w3.org/2000/svg" xmlns:xlink="http://www.w3.org/1999/xlink" viewBox="0,0,256,256" width="192px" height="192px"><g fill="#5e17eb" fill-rule="nonzero" stroke="none" stroke-width="1" stroke-linecap="butt" stroke-linejoin="miter" stroke-miterlimit="10" stroke-dasharray="" stroke-dashoffset="0" font-family="none" font-weight="none" font-size="none" text-anchor="none" style="mix-blend-mode: normal"><g transform="scale(10.66667,10.66667)"><path d="M16,3h-8c-1.105,0 -2,0.895 -2,2v7h12v-7c0,-1.105 -0.895,-2 -2,-2z" opacity="0.35"></path><circle cx="8" cy="15" r="1" opacity="0.35"></circle><circle cx="12" cy="15" r="1" opacity="0.35"></circle><circle cx="16" cy="15" r="1" opacity="0.35"></circle><circle cx="16" cy="19" r="1" opacity="0.35"></circle><circle cx="12" cy="19" r="1" opacity="0.35"></circle><circle cx="8" cy="19" r="1" opacity="0.35"></circle><path d="M20.5,10h-0.5c0,-1.105 -0.895,-2 -2,-2h-3c-0.552,0 -1,0.448 -1,1c0,0.552 0.448,1 1,1h1c0.552,0 1,0.448 1,1c0,0.552 -0.448,1 -1,1h-8c-0.552,0 -1,-0.448 -1,-1c0,-0.552 0.448,-1 1,-1h1c0.552,0 1,-0.448 1,-1c0,-0.552 -0.448,-1 -1,-1h-3c-1.105,0 -2,0.895 -2,2h-0.5c-0.828,0 -1.5,0.672 -1.5,1.5c0,0.828 0.672,1.5 1.5,1.5h0.5v6c0,1.657 1.343,3 3,3h10c1.657,0 3,-1.343 3,-3v-6h0.5c0.828,0 1.5,-0.672 1.5,-1.5c0,-0.828 -0.672,-1.5 -1.5,-1.5zM8,20c-0.552,0 -1,-0.448 -1,-1c0,-0.552 0.448,-1 1,-1c0.552,0 1,0.448 1,1c0,0.552 -0.448,1 -1,1zM8,16c-0.552,0 -1,-0.448 -1,-1c0,-0.552 0.448,-1 1,-1c0.552,0 1,0.448 1,1c0,0.552 -0.448,1 -1,1zM12,20c-0.552,0 -1,-0.448 -1,-1c0,-0.552 0.448,-1 1,-1c0.552,0 1,0.448 1,1c0,0.552 -0.448,1 -1,1zM12,16c-0.552,0 -1,-0.448 -1,-1c0,-0.552 0.448,-1 1,-1c0.552,0 1,0.448 1,1c0,0.552 -0.448,1 -1,1zM16,20c-0.552,0 -1,-0.448 -1,-1c0,-0.552 0.448,-1 1,-1c0.552,0 1,0.448 1,1c0,0.552 -0.448,1 -1,1zM16,16c-0.552,0 -1,-0.448 -1,-1c0,-0.552 0.448,-1 1,-1c0.552,0 1,0.448 1,1c0,0.552 -0.448,1 -1,1z"></path></g></g></svg>

<svg xmlns="http://www.w3.org/2000/svg"  viewBox="0 0 24 24" width="192px" height="192px"><path d="M16,3H8C6.895,3,6,3.895,6,5v7h12V5C18,3.895,17.105,3,16,3z" opacity=".35"/><circle cx="8" cy="15" r="1" opacity=".35"/><circle cx="12" cy="15" r="1" opacity=".35"/><circle cx="16" cy="15" r="1" opacity=".35"/><circle cx="16" cy="19" r="1" opacity=".35"/><circle cx="12" cy="19" r="1" opacity=".35"/><circle cx="8" cy="19" r="1" opacity=".35"/><path d="M20.5,10H20c0-1.105-0.895-2-2-2h-3c-0.552,0-1,0.448-1,1c0,0.552,0.448,1,1,1h1c0.552,0,1,0.448,1,1c0,0.552-0.448,1-1,1H8	c-0.552,0-1-0.448-1-1c0-0.552,0.448-1,1-1h1c0.552,0,1-0.448,1-1c0-0.552-0.448-1-1-1H6c-1.105,0-2,0.895-2,2H3.5	C2.672,10,2,10.672,2,11.5S2.672,13,3.5,13H4v6c0,1.657,1.343,3,3,3h10c1.657,0,3-1.343,3-3v-6h0.5c0.828,0,1.5-0.672,1.5-1.5	S21.328,10,20.5,10z M8,20c-0.552,0-1-0.448-1-1c0-0.552,0.448-1,1-1c0.552,0,1,0.448,1,1C9,19.552,8.552,20,8,20z M8,16	c-0.552,0-1-0.448-1-1c0-0.552,0.448-1,1-1c0.552,0,1,0.448,1,1C9,15.552,8.552,16,8,16z M12,20c-0.552,0-1-0.448-1-1	c0-0.552,0.448-1,1-1c0.552,0,1,0.448,1,1C13,19.552,12.552,20,12,20z M12,16c-0.552,0-1-0.448-1-1c0-0.552,0.448-1,1-1	c0.552,0,1,0.448,1,1C13,15.552,12.552,16,12,16z M16,20c-0.552,0-1-0.448-1-1c0-0.552,0.448-1,1-1c0.552,0,1,0.448,1,1	C17,19.552,16.552,20,16,20z M16,16c-0.552,0-1-0.448-1-1c0-0.552,0.448-1,1-1c0.552,0,1,0.448,1,1C17,15.552,16.552,16,16,16z"/></svg>
